src/icons/chat-bubble.svg

<svg width="24" height="24" viewBox="0 0 24 24" fill="none" xmlns="http://www.w3.org/2000/svg">
<path d="M11 6C11 6.55228 10.5523 7 10 7H9V10H11V8.82929C12.1652 8.41746 13 7.30622 13 6C13 4.34315 11.6569 3 10 3C8.34315 3 7 4.34315 7 6H9C9 5.44772 9.44772 5 10 5C10.5523 5 11 5.44772 11 6Z" fill="black"/>
<path d="M11 13V11H9V13H11Z" fill="black"/>
<path fill-rule="evenodd" clip-rule="evenodd" d="M10 16H20V0H0V16H3V21L10 16ZM5 17.1136L9.35907 14H18V2H2V14H5V17.1136Z" fill="black"/>
<path d="M10 17H12V18H15.4721L19 19.7639V18H22V11H21V9H24V20H21V23L15 20H10V17Z" fill="black"/>
</svg>

<svg xmlns="http://www.w3.org/2000/svg" width="24" height="24" fill="none"><path fill="currentColor" d="M11 6a1 1 0 0 1-1 1H9v3h2V8.83A3.001 3.001 0 1 0 7 6h2a1 1 0 0 1 2 0m0 7v-2H9v2z"/><path fill="currentColor" fill-rule="evenodd" d="M10 16h10V0H0v16h3v5zm-5 1.114L9.36 14H18V2H2v12h3z" clip-rule="evenodd"/><path fill="currentColor" d="M10 17h2v1h3.472L19 19.764V18h3v-7h-1V9h3v11h-3v3l-6-3h-5z"/></svg>
